icons/svgs/car-bus-outline.svg

<svg width="24" height="24" viewBox="0 0 24 24" fill="none" xmlns="http://www.w3.org/2000/svg">
<path d="M2.4 5.125H7.2H12.0375C11.325 4.57812 9.8625 3.875 7.2 3.875C4.725 3.875 3.225 4.53906 2.4 5.125ZM1.8 7V10.125H6.3V7H1.8ZM1.8 12V15.75C1.8 16.2969 2.175 16.6875 2.7 16.6875H7.2V18.5625H3V19.8125C3 20.3594 2.5875 20.75 2.1 20.75C1.575 20.75 1.2 20.3594 1.2 19.8125V18.0938C0.45 17.5859 0 16.7266 0 15.75V6.64844C0 5.78906 0.15 4.61719 1.05 3.83594C2.175 2.89844 4.1625 2 7.2 2C10.35 2 12.2625 2.89844 13.35 3.83594C14.2125 4.61719 14.4 5.78906 14.4 6.64844V7H13.05C12.9 7 12.75 7.03906 12.6 7.03906V7H8.1V10.125H9.45L8.9625 12H7.2H1.8ZM3.9 13.25C4.3875 13.25 4.8 13.6797 4.8 14.1875C4.8 14.7344 4.3875 15.125 3.9 15.125C3.375 15.125 3 14.7344 3 14.1875C3 13.6797 3.375 13.25 3.9 13.25ZM13.5375 10.125C13.1625 10.125 12.825 10.3984 12.7125 10.75L12.075 12.625H20.2875L19.65 10.75C19.5375 10.3984 19.2 10.125 18.825 10.125H13.5375ZM9.9375 13.25L11.025 10.125C11.4 9.03125 12.4125 8.25 13.5375 8.25H18.825C19.95 8.25 20.9625 9.03125 21.375 10.125L22.425 13.25C22.425 13.2891 22.425 13.2891 22.4625 13.3281C23.3625 13.9922 24 15.125 24 16.375V17.625V18.25V19.5V21.0625C24 21.6094 23.5875 22 23.1 22C22.575 22 22.2 21.6094 22.2 21.0625V19.5H10.2V21.0625C10.2 21.6094 9.7875 22 9.3 22C8.775 22 8.4 21.6094 8.4 21.0625V19.5V18.25V17.625V16.375C8.4 15.125 9 13.9922 9.9 13.3281C9.9375 13.2891 9.9375 13.2891 9.9375 13.25ZM20.4 14.5H12C10.9875 14.5 10.2 15.3594 10.2 16.375V17.625H22.2V16.375C22.2 15.3594 21.375 14.5 20.4 14.5ZM12.6 15.125C13.0875 15.125 13.5 15.5547 13.5 16.0625C13.5 16.6094 13.0875 17 12.6 17C12.075 17 11.7 16.6094 11.7 16.0625C11.7 15.5547 12.075 15.125 12.6 15.125ZM18.9 16.0625C18.9 15.5547 19.275 15.125 19.8 15.125C20.2875 15.125 20.7 15.5547 20.7 16.0625C20.7 16.6094 20.2875 17 19.8 17C19.275 17 18.9 16.6094 18.9 16.0625Z" fill="black"/>
</svg>

<svg xmlns="http://www.w3.org/2000/svg" width="24" height="24" fill="currentColor" class="icon-car-bus-outline" viewBox="0 0 24 24">
  <mask id="a" width="24" height="20" x="0" y="2" maskUnits="userSpaceOnUse" style="mask-type:alpha">
    <path d="M2.4 5.125h9.637c-.712-.547-2.174-1.25-4.837-1.25-2.475 0-3.975.664-4.8 1.25M1.8 7v3.125h4.5V7zm0 5v3.75c0 .547.375.938.9.938h4.5v1.875H3v1.25c0 .546-.413.937-.9.937-.525 0-.9-.39-.9-.937v-1.72C.45 17.587 0 16.728 0 15.75V6.648c0-.859.15-2.03 1.05-2.812C2.175 2.898 4.163 2 7.2 2c3.15 0 5.062.898 6.15 1.836.863.781 1.05 1.953 1.05 2.812V7h-1.35c-.15 0-.3.04-.45.04V7H8.1v3.125h1.35L8.963 12zm2.1 1.25c.488 0 .9.43.9.938 0 .546-.412.937-.9.937-.525 0-.9-.39-.9-.937 0-.508.375-.938.9-.938m9.638-3.125c-.376 0-.713.273-.825.625l-.638 1.875h8.213l-.638-1.875c-.112-.352-.45-.625-.825-.625zm-3.6 3.125 1.087-3.125c.375-1.094 1.387-1.875 2.512-1.875h5.288c1.125 0 2.137.781 2.55 1.875l1.05 3.125c0 .04 0 .04.037.078A3.84 3.84 0 0 1 24 16.375v4.688c0 .546-.413.937-.9.937-.525 0-.9-.39-.9-.937V19.5h-12v1.563c0 .546-.412.937-.9.937-.525 0-.9-.39-.9-.937v-4.688c0-1.25.6-2.383 1.5-3.047.037-.039.037-.039.037-.078M20.4 14.5H12c-1.012 0-1.8.86-1.8 1.875v1.25h12v-1.25c0-1.016-.825-1.875-1.8-1.875m-7.8.625c.488 0 .9.43.9.938 0 .546-.412.937-.9.937-.525 0-.9-.39-.9-.937 0-.508.375-.938.9-.938m6.3.938c0-.508.375-.938.9-.938.488 0 .9.43.9.938 0 .546-.412.937-.9.937-.525 0-.9-.39-.9-.937"/>
  </mask>
  <g mask="url(#a)">
    <path d="M0 0h24v24H0z"/>
  </g>
</svg>
